!! Molto adagio
**kern
*clefG2
*k[b-e-a-d-g-]
*M4/2
=1-
2r
2r
*^
1B-	1g-
=
[0An	[0f
=
2A]	1f_
2r	.
1r	4f]
.	(2e-
.	4d-)
*v	*v
*M5/2
=
1.e-
2r
2c 2a-
=
[0B- [0g-
=
0B-_ 0g-_
=
0B-] 0g-]
=
1An 1f
2r
*^
2B-	2g-
=
[0A	[0f
=
2A]	1f_
2r	.
1r	4f]
.	(2e-
.	4d0)
*v	*v
=
1e-
{(4c
4cc)
[2cc
!! Rehearsal marking 1
*>1
2cc]
1cc-}
2r
=
0r
=
2r
2r
(2e-
2A-)
*M6/2
=
(1.A-
2B-)
2r
2r
*M4/2
=
0r
=
{2c
1e-
[2d-
=
2d-]
(4c
4B-}
2B-
2e-
!! Rehearsal marking 2
*>2
1d-}
2r
*^
2B-	2g-
=
1An	[1f
2r	2f]
*v	*v
2r
=
0r
=
0r
=
0r
=
0r
=
0r
*M6/2
=
0r
1r
*M4/2
=
(1.A-
1c-
!! Rehearsal marking 3
*>3
2.B-)
4R
2R
{2G-
=
[0f
=
1f_
4f]
2e-
4d-}
*M5/2
=
1e-
1a-}
*^
[2d-	2a-
*M4/2
=
0d-_	0g-_
=
0d-_	0g-_
=
1d-]	0g-]
2.c	.
4B-	.
=
1An	1f
*v	*v
{2g-
=
0f_
=
1f_
4f]
2e-
4d-
!! Rehearsal marking 4
=
1c
(4c
4cc)
[2cc
=
2cc]
[1f
=
1f]}
1B-
=
1c
2d-
2e-
=
0A- 0f
*M3/2
=
1.d-
*M4/2
=
1c-
{[1e-
=
4e-
4d-
4e-
4f
4d-
4e-
4f
4e-
=
4f
4g-
4e-
4f
4g-
4f
4g-
4a-
*^
=	=
4f	2ff
4r	.
2r	{[2ccc
1dd-	2ccc]
.	2b-]
=	=
1ee-	1bb-]
1ff	1cc
*v	*v
=
(2aa- 2ccc
2bb-]
2gg-~ 2ddd-~
2bb-~ 2eee-~
=
1fff
[1ggg-
=
1ggg-]
1ggg-
=
!! sff
(0ggg-
=
1fff);
2r
(2e- 2g-
!! Rehearsal marking 5
=
1.A- 1.f-)
(2G# 2en
=
1.An 1.dn
2d 2f#
=
0c]
!! Tempo I
=
2r
2r
2r
*v
2d-	2g-
=	=
{([0c	{0f
=
2c]	1f_
1.B-)	.
.	4f]
.	2e-
.	4d-
*M5/2	*M5/2
1.c}	1.e-}
2r	2r
2d-	2a-
!! Rehearsal marking 6
*>6	*>6
*M4/2	*M4/2
=	=
0d-	0g-
=	=
{[0c	{[0g-
=	=
1.c]	0g-]
2B-	.
=	=
1An}	1f}
*v	*v
2r
4d- 4g-
=
[0c 0f
=
1c 1f]
2r
2g-
=
[0f
=
0f],
=
0f
==
*-

